X:1
T:Der ligger et land
T:Der ligger et land
T:Björnstjerne Björnson
T:Agathe Backer Grøndahl
T:(Synges i Fiss)
C:Agathe Backer Grøndahl
%%score [ 1 2 3 4 ]
L:1/8
Q:1/4=112
M:4/4
K:F
V:1 treble-8 nm="T1"
V:2 treble-8 nm="T2"
V:3 bass nm="B1"
V:4 bass nm="B2"
V:1
!f!"^Allegretto" c | c2 c c d2 A A | c2 c B A3 G |!<(! (Fc) =B!<)! c f2 f e | %4
w: 1.Der|lig- ger et land mod den|e- vi- ge sne, i|rev- * ner- ne kun er der|
w: 2.|lød der et frem- ad! et|frem- ad end- nu på|fæ- * dre- ne- mål og med|
!>(! e2 e d!>)! c2 d2 | d2 B c d2 d c | B2 B B A3 A | (A^c) d f!<(! e2 =c!<)! d | %8
w: vår- liv at se. Men|ha- vet får til med hi-|sto- ri- e- døn, og|el- * sket er lan- det som|
w: fæ- dre- ne- hu for|fri- hed, for norsk- hed, for|Nor- ge hur- ra, og|fjæl- * de- ne selv ro- per|
 !tenuto!e2 !tenuto!e2 !tenuto!e2 z A | B2 B B A2 A A | d2 d d c2 c2 | %11
w: mor af søn. Hun|tog oss i fan- get den-|gang vi var små, og|
w: langt hur- ra! Da|løs- ned be- geist- rin- gens|rul- len- de fån, da|
 g2 f f"^ritard." e2!<(! f =B | c2 _c c!<)! !fermata!f2 z"^a tempo"!p! =c | c2 c c d2 A A | %14
w: gav os sin sa- ga med|bil- le- der på. Vi|læ- ste så øj- et blev|
w: døb- tes vi af hen- des|mæg- ti- ge ånd, da|stod o- ver fjæl- det et|
 c2 c2 d2 f2 |"^cresc.poco string." f2 f f!<(! f2 d d | f2 f2 f2 b2!<)! | %17
w: stort og vådt; da|smil- te den gam- le og|nik- ked blot, og|
w: syn i glød, som|si- den os ma- ner ind-|til vor død, ind-|
!f! !tenuto!a4 !tenuto!g4 | !tenuto!f4 z2 d2 |1"^sost."!>(! c8!>)! | c4 z2 z c :|2 %21
w: nik- ked|blot, og|nik-|ked. 2.Da|
w: til vor|død, ind|||
"^sost."!f! c4 g4 | f6 z |] %23
w: til vor|død.|
w: ||
V:2
!f! A | A2 A A B2 F F | E2 F G F3 E |!<(! (FG) G!<)! G c2 d d |!>(! c2 =B B!>)! c2 _B2 | %5
w: 1.Der|lig- ger et land mod den|e- vi- ge sne, i|rev- * ner- ne kun er der|vår- liv at se. Men|
w: 2.|lød der et frem- ad! et|frem- ad end- nu på|fæ- * dre- ne- mål og med|fæ- dre- ne- hu for|
 B2 F A A2 A A | G2 G F E3 G | F2 A d!<(! =B2 A!<)! A | !tenuto!=B2 !tenuto!B2 !tenuto!^c2 z E | %9
w: ha- vet får til med hi-|sto- ri- e- døn, og|el- sket er lan- det som|mor af søn. Hun|
w: fri- hed, for norsk- hed, for|Nor- ge hur- ra, og|fjæl- de- ne selv ro- per|langt hur- ra! Da|
 E2 E E F2 F A | ^G2 G G A2 c2 | d2 c c"^ritard." B2!<(! c _A | %12
w: tog oss i fan- get den-|gang vi var små, og|gav os sin sa- ga med|
w: løs- ned be- geist- rin- gens|rul- len- de fån, da|døb- tes vi af hen- des|
 G2 _G G!<)! !fermata!F2 z"^a tempo"!p! A | A2 A A A2 F F | A2 A2 A2 =B2 | %15
w: bil- le- der på. Vi|læ- ste så øj- et blev|stort og vådt; da|
w: mæg- ti- ge ånd, da|stod o- ver fjæl- det et|syn i glød, som|
"^cresc.poco string." c2 c c!<(! d2 _B B | c2 c2 d2 f2!<)! |!f! !tenuto!e4 !tenuto!e4 | %18
w: smil- te den gam- le og|nik- ked blot, og|nik- ked|
w: si- den os ma- ner ind-|til vor død, ind-|til vor|
 !tenuto!d4 z2 B2 |1"^sost."!>(! [GB]8!>)! | [GB]4 z2 z A :|2"^sost."!f! B4 [Bc]4 | [Ac]6 z |] %23
w: blot, og|nik-|ked. 2.Da|til vor|død.|
w: død, ind|||||
V:3
!f! F, | F,2 F, F, F,2 F, F, | G,2 F, E, F,3 G, |!<(! (F,E,) F,!<)! E, A,2 A, _A, | %4
w: 1.Der|lig- ger et land mod den|e- vi- ge sne, i|rev- * ner- ne kun er der|
w: 2.|lød der et frem- ad! et|frem- ad end- nu på|fæ- * dre- ne- mål og med|
!>(! ^F,2 =G, =F,!>)! E,2 F,2 | F,2 D, F, ^F,2 F, F, | G,2 D, D, ^C,3 E, | %7
w: vår- liv at se. Men|ha- vet får til med hi-|sto- ri- e- døn, og|
w: fæ- dre- ne- hu for|fri- hed, for norsk- hed, for|Nor- ge hur- ra, og|
 D,2 F, A,!<(! _A,2 =A,!<)! A, | !tenuto!A,2 !tenuto!^G,2 !tenuto!A,2 z ^C, | %9
w: el- sket er lan- det som|mor af søn. Hun|
w: fjæl- de- ne selv ro- per|langt hur- ra! Da|
 ^C,2 C, C, D,2 D, F, | F,2 F, F, E,2 A,2 | B,2 A, A,"^ritard." G,2!<(! A, F, | %12
w: tog oss i fan- get den-|gang vi var små, og|gav os sin sa- ga med|
w: løs- ned be- geist- rin- gens|rul- len- de fån, da|døb- tes vi af hen- des|
 E,2 _E, _G,!<)! !fermata!B,2 z"^a tempo"!p! F, | F,2 F, F, F,2 F, F, | F,2 F,2 F,2 ^G,2 | %15
w: bil- le- der på. Vi|læ- ste så øj- et blev|stort og vådt; da|
w: mæg- ti- ge ånd, da|stod o- ver fjæl- det et|syn i glød, som|
"^cresc.poco string." A,2 A, A,!<(! B,2 F, F, | A,2 A,2 B,2 _D2!<)! |!f! !tenuto!C4 !tenuto!B,4 | %18
w: smil- te den gam- le og|nik- ked blot, og|nik- ked|
w: si- den os ma- ner ind-|til vor død, ind-|til vor|
 !tenuto!A,4 z2 F,2 |1"^sost."!>(! (F,4 D,4)!>)! | E,4 z2 z F, :|2"^sost."!f! F,4 E,4 | F,6 z |] %23
w: blot, og|nik- ked.|* 2.Da|til vor|død.|
w: død, ind|||||
V:4
!f! F, | F,2 F, F, B,,2 D, D, | C,2 D, E, F,3 C, |!<(! (F,E,) D,!<)! C, A,,2 =B,, E, | %4
w: 1.Der|lig- ger et land mod den|e- vi- ge sne, i|rev- * ner- ne kun er der|
w: 2.|lød der et frem- ad! et|frem- ad end- nu på|fæ- * dre- ne- mål og med|
!>(! A,,2 G,, G,,!>)! C,2 _B,,2 | B,,2 D, F, D,2 D, D, | G,,2 G,, G,, A,,3 ^C, | %7
w: vår- liv at se. Men|ha- vet får til med hi-|sto- ri- e- døn, og|
w: fæ- dre- ne- hu for|fri- hed, for norsk- hed, for|Nor- ge hur- ra, og|
 D,2 F, D,!<(! E,2 F,!<)! F, | !tenuto!E,2 !tenuto!E,2 !tenuto!A,,2 z A,, | %9
w: el- sket er lan- det som|mor af søn. Hun|
w: fjæl- de- ne selv ro- per|langt hur- ra! Da|
 G,,2 G,, G,, D,2 D, D, | =B,,2 B,, B,, C,2 C,2 | C,2 C, C,"^ritard." C,2!<(! C, F, | %12
w: tog oss i fan- get den-|gang vi var små, og|gav os sin sa- ga med|
w: løs- ned be- geist- rin- gens|rul- len- de fån, da|døb- tes vi af hen- des|
 E,2 _E, E,!<)! !fermata!D,2 z"^a tempo"!p! C, | C,2 F, F, D,2 D, _D, | C,2 F,2 D,2 _D,2 | %15
w: bil- le- der på. Vi|læ- ste så øj- et blev|stort og vådt; da|
w: mæg- ti- ge ånd, da|stod o- ver fjæl- det et|syn i glød, som|
"^cresc.poco string." C,2 C, C,!<(! C,2 C, C, | C,2 C,2 C,2 C,2!<)! |!f! !tenuto!C,4 !tenuto!^C,4 | %18
w: smil- te den gam- le og|nik- ked blot, og|nik- ked|
w: si- den os ma- ner ind-|til vor død, ind-|til vor|
 !tenuto!D,4 z2 G,,2 |1"^sost."!>(! C,8!>)! | C,4 z2 z F, :|2"^sost."!f! C,4 C,4 | F,,6 z |] %23
w: blot, og|nik-|ked. 2.Da|til vor|død.|
w: død, ind|||||

